symbols/web/sms_failed/materialsymbolssharp/sms_failed_wght700grad200fill1_40px.svg

<svg xmlns="http://www.w3.org/2000/svg" height="40" width="40"><path d="M18.333 18.833h3.375V8.292h-3.375Zm1.709 6q.833 0 1.396-.583.562-.583.562-1.458 0-.834-.562-1.396-.563-.563-1.396-.563-.875 0-1.459.542-.583.542-.583 1.417t.583 1.458q.584.583 1.459.583ZM2.125 37.917V2.042h35.792v29.166H8.833Z"/></svg>

<svg xmlns="http://www.w3.org/2000/svg" height="40" width="40"><path d="M18.333 18.833H21.708V8.292H18.333ZM20.042 24.833Q20.875 24.833 21.438 24.25Q22 23.667 22 22.792Q22 21.958 21.438 21.396Q20.875 20.833 20.042 20.833Q19.167 20.833 18.583 21.375Q18 21.917 18 22.792Q18 23.667 18.583 24.25Q19.167 24.833 20.042 24.833ZM2.125 37.917V2.042H37.917V31.208H8.833Z"/></svg>
